sliced-svg/output/0116-waso.svg

<?xml version="1.0" encoding="UTF-8"?><svg xmlns="http://www.w3.org/2000/svg" xmlns:xlink="http://www.w3.org/1999/xlink" width="1000px" height="1000px" version="1.1"><g id="surface1"><path style="fill:none;stroke-width:1;stroke-linecap:round;stroke-linejoin:round;stroke:rgb(0%,0%,0%);stroke-opacity:1;stroke-miterlimit:4" d="M 126 225 L 134.529141 232 L 126 232 L 126 235 " transform="matrix(50,0,0,50,-6000,-11000)"/><path style="stroke:none;fill-rule:nonzero;fill:rgb(0%,0%,0%);fill-opacity:1" d="M351.050781 496.449219C351.050781 524.0625 328.664062 546.449219 301.050781 546.449219 273.4375 546.449219 251.050781 524.0625 251.050781 496.449219 251.050781 468.835938 273.4375 446.449219 301.050781 446.449219 328.664062 446.449219 351.050781 468.835938 351.050781 496.449219zM484.589844 496.449219C484.589844 524.0625 462.207031 546.449219 434.589844 546.449219 406.976562 546.449219 384.589844 524.0625 384.589844 496.449219 384.589844 468.835938 406.976562 446.449219 434.589844 446.449219 462.207031 446.449219 484.589844 468.835938 484.589844 496.449219zM484.589844 496.449219"/></g></svg>

<svg xmlns="http://www.w3.org/2000/svg" width="1000" height="1000"><defs/><path d="M300 250l426.457 350H300v150" fill="none" stroke-linecap="round" stroke-linejoin="round" stroke="#000" stroke-width="50"/><path d="M351.05 496.45c0 27.613-22.386 50-50 50-27.613 0-50-22.388-50-50 0-27.614 22.387-50 50-50 27.614 0 50 22.386 50 50zm133.54 0c0 27.613-22.383 50-50 50-27.613 0-50-22.388-50-50 0-27.614 22.387-50 50-50 27.617 0 50 22.386 50 50zm0 0"/></svg>
